!!!COM: Gonzaga, Francisca
!!!CDT: 1847/10/17-1935/02/28
!!!OTL: Choro
!!!OPR: Tangos
**kern	**kern	**dynam
*part2	*part1	*part1
*staff2	*staff1	*
*>[A,B,A]	*>[A,B,A]	*
*>A	*>A	*
*clefF4	*clefG2	*
*k[b-e-a-]	*k[b-e-a-]	*
*M2/4	*M2/4	*
=1	=1	=1
*E-:	*E-:	*
16cKL 16e- 16a-	16ee-^KL 16eee-	.
8c 8e- 8a-	8ee- 8eee-	.
16cJk 16e- 16a-	16ee-Jk 16eee-	.
16B-KL 16d 16a-	16dd^KL 16ddd	.
8B- 8d 8a-	8dd 8ddd	.
16B-Jk 16d 16a-	16ddJk 16ddd	.
=2	=2	=2
8A-L 8B- 8d 8f	8bb-L 8bbb-	.
8A-J 8B- 8d 8f	8bb-J 8bbb-	.
8GL 8B- 8e-	8b-^ 8bb-	.
8GJ 8B- 8e-	8r	.
=3	=3	=3
!	!LO:TX:a:i:t=eco	!
16cKL 16e- 16a-	16ee-KL 16eee-	p
8c 8e- 8a-	8ee- 8eee-	.
16cJk 16e- 16a-	16ee-Jk 16eee-	.
16B-KL 16d 16a-	16ddKL 16ddd	.
8B- 8d 8a-	8dd 8ddd	.
16B-Jk 16d 16a-	16ddJk 16ddd	.
=4	=4	=4
8A-L 8B- 8d 8f	8bb-L 8bbb-	p
8A-J 8B- 8d 8f	8bb-J 8bbb-	.
8GL 8B- 8e-	8b- 8bb-	.
8GJ 8B- 8e-	8r	.
=5	=5	=5
16cKL 16e-	16a-^KL 16ee-	f
8c 8e-	8a- 8ee-	.
16cJk 16e-	16a-^Jk 16ee-	.
8B-L	8g^L 8b-	.
8B-J	8g^J 8b-	.
=6	=6	=6
!	!LO:TX:a:i:t=eco	!
16cKL 16e-	16a-KL 16ee-	p
8c 8e-	8a- 8ee-	.
16cJk 16e-	16a-Jk 16ee-	.
8B-L	8gL 8b-	.
8B-J	8gJ 8b-	.
=7	=7	=7
16cKL 16e-	16a-^KL 16ee-	f
8c 8e-	8a- 8ee-	.
16cJk 16e-	16a-^Jk 16ee-	.
16B-KL	16g^KL 16b-	.
8B-	8g^ 8b-	.
16B-Jk	16g^Jk 16b-	.
=8	=8	=8
8BB-; 8A-	8d; 8a- 8b-	.
8r	16r	.
.	16B-	.
4r	(16cLL	.
.	16d	.
.	16e-	.
.	16fJJ)	.
=9||	=9||	=9||
8.EE-L	8g^L	p
.	8B-J 8e-	.
16E-Jk	.	.
8.EEnL	8g^L	.
.	8B-J 8en	.
16EnJk	.	.
=10	=10	=10
8.FFL	8gL	.
.	8AnJ 8c	.
16CJk	.	.
8F	16r	.
.	16fLL	.
8r	16en	.
.	16fJJ	.
=11	=11	=11
8.BB-L	8ccL	.
.	8dJ 8a-	.
16A-Jk	.	.
8.BB-L	8ccL	.
.	16dL 16a-	.
16A-Jk	16ddJJ	.
=12	=12	=12
8.GL	8ccL	.
.	8e-J 8g	.
16E-Jk	.	.
4EE-	16r	.
.	(16b-LL	.
.	16an	.
.	16b-JJ)	.
=13	=13	=13
8.E-L	(16ggLL	.
.	16dd	.
.	16ff	.
16GJk 16B- 16e-	16ee-JJ	.
8.GL	(16b-LL)	.
.	16g	.
.	16e-	.
16GJk	16cJJ)	.
=14	=14	=14
8.A-L	4d	.
16B-Jk	.	.
4d	16r	.
.	(16a-LL	.
.	16cc	.
.	16bnJJ	.
=15	=15	=15
8.BB-L	4a-) 4b-	.
16B-Jk	.	.
4A- 4d	16r	.
.	16aa-LL	.
.	16ccc	.
.	16bbnJJ	.
=16	=16	=16
8.E-L	16bb-LL	.
.	16gg	.
.	16ee-	.
16B-Jk	16ccJJ	.
4B- 4e- 4g	8b-	.
.	8r	.
=17	=17	=17
8.EE-L	8gg^L	f
.	8b-J 8ee-	.
16B-Jk 16e- 16g	.	.
8.EEnL	8gg^L	.
.	8b-J 8een	.
16B-Jk 16en 16g	.	.
=18	=18	=18
8.FFL	8ggL	f
.	8anJ 8cc	.
16cJk	.	.
8AnL 8c 8f	16r	.
.	(16ffLL	.
8cJ	16een	.
.	16ffJJ)	.
=19	=19	=19
8.A-L	8ccc^L	f
.	8ddJ 8aa-	.
16B-Jk	.	.
8.dL 8.a-	8cccL	.
.	16ddL 16aa-	.
16A-Jk	16dddJJ	.
=20	=20	=20
8.GL	8cccL	.
.	8ee-J 8gg	.
16B-Jk	.	.
4e- 4g	16r	.
.	(16bb-LL	.
.	16aan	.
.	16bb-JJ)	.
=21	=21	=21
8.CCL	(16gggLL	.
.	16eeen	.
.	16ddd-X	.
16EnJk	16bb-JJ	.
4B- 4c 4en	16ggLL	.
.	16een	.
.	16dd-X	.
.	16b-JJ)	.
=22	=22	=22
8.FFL	(16gLL	.
.	16b-	.
.	16a-	.
16FJk	16enJJ	.
4A-	16fLL	.
.	16g	.
.	16a-	.
.	16ccJJ)	.
=23	=23	=23
8.BBB-L	8gL 8b-	.
.	8ggJ	.
16B-Jk	.	.
8dL 8b-	8ggL	.
8B-J 8d 8a-	8ffJ	.
=	=	=
8G 8B- 8e-	8gL 8ee-	.
8EE- 8E-J	8ee-J 8gg 8bb- 8eee-	.
!	!LO:TX:a:t=Fine	!
*>B	*>B	*
4r	8r	.
.	8ee-	.
=24||	=24||	=24||
*A-:	*A-:	*
*k[b-e-a-d-]	*k[b-e-a-d-]	*
16D-KL	16ggKL	.
8E- 8G 8d-	8g 8dd-	.
16E-Jk 16G 16d-	16gJk 16dd-	.
8D-L	16r	.
.	(16ffLL	.
8E-J 8G 8d-	16ee-	.
.	16ddnJJ)	.
=25	=25	=25
16CKL	16ffKL	.
8E- 8A- 8c	8a- 8cc	.
16E-Jk 16A- 16c	16a-Jk 16cc	.
8CL	16ee-KL	.
.	8a- 8cc	.
8E-J 8A- 8c	.	.
.	16ee-Jk	.
=26	=26	=26
16D-KL	16aa-KL	.
8E- 8G 8d-	8dd- 8ee-	.
16E-Jk 16G 16d-	16dd-Jk 16ee-	.
8D-L	16ggKL	.
.	8dd- 8ee-	.
8E-J 8G 8d-	.	.
.	16bb-Jk	.
=27	=27	=27
16CKL	16ddd-KL	.
8E- 8A- 8c	8ee- 8aa-	.
16E-Jk 16A- 16c	16ee-Jk 16aa-	.
8CL	8cccL	.
8E-J 8A- 8c	8ee-J 8aa-	.
!!pagebreak:original
=28	=28	=28
8D-L	16r	.
.	16eee-LL	.
8FJ 8B- 8d-	16ddd-	.
.	16aanJJ	.
4r	16cccLL	.
.	16bb-	.
.	16ff	.
.	16ggJJ	.
=29	=29	=29
16E-KL	8ee-L	.
8A- 8c 8e-	.	.
.	8aa-J	.
16A-Jk 16c 16e-	.	.
8E-L	4aa-	.
8A-J 8c 8e-	.	.
=30	=30	=30
16D-KL	8b-L 8dd-	.
8E- 8G 8d-	.	.
.	8ggJ	.
16E-Jk 16G 16d-	.	.
8D-L	8dd-L 8ff	.
8E-J 8G 8d-	8dd-J 8ff-X	.
=31	=31	=31
16CKL	4cc 4ee-	.
8E- 8A- 8c	.	.
16E-Jk 16A- 16c	.	.
8C	8r	.
8r	8ee-	.
=32	=32	=32
16D-KL	16ggKL	.
8E- 8G 8d-	8g 8b- 8dd-	.
16E-Jk 16G 16d-	16gJk 16b- 16dd-	.
8D-L	16r	.
.	(16ffLL	.
8E-J 8G 8d-	16ee-	.
.	16ddnJJ)	.
=33	=33	=33
16CKL	16ffKL	.
8E- 8A- 8c	8a- 8cc	.
16E-Jk 16A- 16c	16a-Jk 16cc	.
8CL	16ee-KL	.
.	8a- 8cc	.
8E-J 8A- 8c	.	.
.	16ee-Jk	.
=34	=34	=34
16D-KL	16aa-KL	.
8E- 8G 8d-	8dd- 8ee-	.
16E-Jk 16G 16d-	16dd-Jk 16ee-	.
8D-L	16ggKL	.
.	8dd- 8ee-	.
8E-J 8G 8d-	.	.
.	16bb-Jk	.
=35	=35	=35
16FFKL	16ddd-KL	.
8A- 8c 8f	8cc 8ff 8aa-	.
16A-Jk 16c 16f	16ccJk 16ff 16aa-	.
8FL	8cccL	.
8A-J 8c 8f	8ccJ 8ff 8aa-	.
=36	=36	=36
16D-KL	16r	.
8F 8A- 8d-	16eee-LL	.
.	16ddd-	.
16FJk 16A- 16d-	16aanJJ	.
8DnL	16cccLL	.
.	16bb-	.
8A-J 8Bn 8dn	16ff	.
.	16ggJJ	.
=37	=37	=37
16E-KL	8ee-L	.
8A- 8c 8e-	.	.
.	8aa-J	.
16A-Jk 16c 16e-	.	.
8E-L	4aa-	.
8A-J 8c 8e-	.	.
=38	=38	=38
16D-KL	16r	.
8E- 8G 8d-	16eenLL	.
.	16gg	.
16E-Jk 16G 16d-	16ffJJ	.
8D-L	16ccLL	.
.	16ee-X	.
8E-J 8G 8d-	16dd-	.
.	16gJJ	.
=39	=39	=39
16AA-LL	16a-LL	.
16D-JJ 16E- 16G 16d-	16ee-J	.
8r	8a-J 8cc 8ee- 8aa-	.
8r	4r	.
8A-	.	.
==	==	==
*-	*-	*-
!!!system-decoration: {(s1,s2)}
!!!AGN: Tango
!!!EED: Florian Moldaschl
!!!END: 2025/12/23
!!!ENC: Florian Moldaschl
!!!EEV: 2026/01/14
!!!title: @{OPR}, @{SCT} №@{ONM}